staging/svg/quotes.svg

<svg width="96" height="66" xmlns="http://www.w3.org/2000/svg"><g fill="#FFD400" fill-rule="nonzero"><path d="M76.2 23.7c2.2-4 6.2-8.3 13-12.4 1.9-1.1 3.1-3.1 3.1-5.2 0-4.3-4.4-7.3-8.4-5.5C72.3 5.7 53 18.4 53 44.7 53 56.5 62.5 66 74.3 66s21.2-9.5 21.2-21.2c0-11.1-8.5-20.1-19.3-21.1zM23.6 23.7c2.2-4 6.2-8.3 13-12.4 1.9-1.1 3.1-3.1 3.1-5.2 0-4.3-4.4-7.3-8.4-5.5C19.8 5.7.5 18.4.5 44.7.5 56.5 10 66 21.7 66S43 56.5 43 44.7c0-11-8.5-20-19.4-21z"/></g></svg>

<?xml version="1.0" encoding="UTF-8"?>
<svg width="96px" height="66px" viewBox="0 0 96 66" version="1.1" xmlns="http://www.w3.org/2000/svg" xmlns:xlink="http://www.w3.org/1999/xlink">
    <!-- Generator: Sketch 55 (78076) - https://sketchapp.com -->
    <title>Group</title>
    <desc>Created with Sketch.</desc>
    <g id="Page-1" stroke="none" stroke-width="1" fill="none" fill-rule="evenodd" opacity="0.1">
        <g id="White-/-testimonials" transform="translate(-16.000000, -172.000000)" fill="#FF00FF" fill-rule="nonzero">
            <g id="Group" transform="translate(16.000000, 172.000000)">
                <path d="M76.2,23.7 C78.4,19.7 82.4,15.4 89.2,11.3 C91.1,10.2 92.3,8.2 92.3,6.1 C92.3,1.8 87.9,-1.2 83.9,0.6 C72.3,5.7 53,18.4 53,44.7 C53,56.5 62.5,66 74.3,66 C86.1,66 95.5,56.5 95.5,44.8 C95.5,33.7 87,24.7 76.2,23.7 Z" id="Path"></path>
                <path d="M23.6,23.7 C25.8,19.7 29.8,15.4 36.6,11.3 C38.5,10.2 39.7,8.2 39.7,6.1 C39.7,1.8 35.3,-1.2 31.3,0.6 C19.8,5.7 0.5,18.4 0.5,44.7 C0.5,56.5 10,66 21.7,66 C33.4,66 43,56.5 43,44.7 C43,33.7 34.5,24.7 23.6,23.7 Z" id="Path"></path>
            </g>
        </g>
    </g>
</svg>
